!!!COM: Frescobaldi, Girolamo
!!!CDT: 1583///-1643
!!!ONM: No. 22
!!!OTL: No. 22: Canzon Prima &agrave; 3. Due Bassi e Canto
!!!OPR: Canzoni da sonare a una, due, tre et quattro, libro primo
!!!PPP: Venezia
!!!PDT: 1634
!!!URL: http://icking-music-archive.org/ByComposer/Frescobaldi.html
!!!ONB: Andrea Friggi, ed.
**kern	**kern	**kern	**kern
!Basso ad Organo	!Basso Secondo	!Basso Primo	!Canto Primo
*staff4	*staff3	*staff2	*staff1
*Icello	*Icello	*Icello	*Ivioln
*clefF4	*clefF4	*clefF4	*clefG2
*k[]	*k[]	*k[]	*k[]
*met(C)	*met(C)	*met(C)	*met(C)
*M4/4	*M4/4	*M4/4	*M4/4
*MM120	*MM120	*MM120	*MM120
=1-	=1-	=1-	=1-
2GG/	2GG/	1G	2gg\
4GG/	4GG/	.	4gg\
4AA/	4AA/	.	8ff\L
.	.	.	8ee\J
=2	=2	=2	=2
4BB/	4BB/	4G\	4dd\
4C/	4C/	8F\L	4ee\
.	.	8E\J	.
2D\	2D\	8D\L	2ff\
.	.	8E\	.
.	.	8F\	.
.	.	8G\J	.
=3	=3	=3	=3
2.C#/	2.C#/	2A\	2.ee\
.	.	4r	.
4D\	4D\	4D\	4dd\
=4	=4	=4	=4
4AA/	4AA/	4.A\	8cc#\L
.	.	.	8a\J
8GG/L	8GG/L	.	2dd\
8FF/J	8FF/J	8AA/	.
4EE/	4EE/	4E\	.
4AA/	4AA/	4AA/	4cc#\
=5	=5	=5	=5
1D	1DD	1D	1dd
=6	=6	=6	=6
1G	1r	2.G\	1r
.	.	8F\L	.
.	.	8E\J	.
=7	=7	=7	=7
2D\	1r	2D\	1r
2E\	.	2E\	.
=8	=8	=8	=8
2F\	1r	2F\	1r
2C#/	.	2C#/	.
=9	=9	=9	=9
2.D\	1r	2.D\	2r
.	.	.	[2dd\
4C/	.	4C/	.
=10	=10	=10	=10
1BB-	1r	1BB-	2dd\]
.	.	.	2dd\
=11	=11	=11	=11
1AA	1r	1AA	2.ee\
.	.	.	4ee\
=12	=12	=12	=12
2A\	1r	1r	2ee\
2D\	.	.	2ff\
=13	=13	=13	=13
[1A	1r	1r	2cc#\
.	.	.	[2ee\
=14	=14	=14	=14
2A\]	1r	1r	4ee\]
.	.	.	8dd\L
.	.	.	8cc\J
2B-\	.	.	[2dd\
=15	=15	=15	=15
1A	1r	1r	2dd\]
.	.	.	2cc#\
=16	=16	=16	=16
2.D\	2.D\	1r	1dd
8C/L	8C/L	.	.
8BB/J	8BB/J	.	.
=17	=17	=17	=17
2AA/	2AA/	1r	1r
2BB-/	2BB-/	.	.
=18	=18	=18	=18
2AA/	2AA/	1r	1r
2A\	2A\	.	.
=19	=19	=19	=19
1F#	2.F#\	1r	1r
.	4F#\	.	.
=20	=20	=20	=20
1G	1G	1r	1r
=21	=21	=21	=21
1E	2.E\	1r	1r
.	4E\	.	.
=22	=22	=22	=22
1D	1D	1r	1r
=23	=23	=23	=23
*M3/1	*M3/1	*M3/1	*M3/1
0GG	0GG	1.G	1.dd
.	.	4F\	2ee\
.	.	4E\	.
1D	1r	1D	1ff
=24	=24	=24	=24
0A	0.r	1A	1ee
.	.	1A	1cc#
1A	.	1A	1ee
=25	=25	=25	=25
0B-	0.r	1.B-	0dd
.	.	4A\	.
.	.	4G\	.
1F#	.	1F#	1r
=26	=26	=26	=26
1.G	1.G	0G	1.gg
2A\	2A\	.	4ff\
.	.	.	4ee\
1B-	1B-	1r	1dd
=27	=27	=27	=27
1A	1A	0.r	1ee
1F#	1F#	.	1aa
1G	1G	.	1dd
=28	=28	=28	=28
0D	0D	1.D	2dd\
.	.	.	2ee\
.	.	.	2ff\
.	.	4C/	4ee\
.	.	4BB/	4dd\
1AA	1r	1AA	2cc\
.	.	.	2dd\
=29	=29	=29	=29
0E	0.r	1E	0.b
.	.	1E	.
1E	.	1E	.
=30	=30	=30	=30
0F	2F\	1.F	0a
.	2G\	.	.
.	2A\	.	.
.	2B\	4E\	.
.	.	4D\	.
1C	1c	1C	1r
=31	=31	=31	=31
0G	1.G	1G	2g/
.	.	.	2a/
.	.	1G	2b\
.	2A\	.	2cc\
1G	1B	1G	1dd
=32	=32	=32	=32
0A	1.A	1.A	1.cc
.	4G\	2B\	2dd\
.	4F\	.	.
1E	1E	1c	1ee
=33	=33	=33	=33
0G	0G	0c	0dd
1GG	1GG	1B	1r
=34	=34	=34	=34
0.C	0C	0c	2cc\
.	.	.	2dd\
.	.	.	2ee\
.	.	.	2ff\
.	1r	1r	1gg
=35	=35	=35	=35
1GG	2GG/	1.G	1.gg
.	2AA/	.	.
1BB	2BB/	.	.
.	2C/	2G\	4ff\
.	.	.	4ee\
1D	1D	1F#	1dd
=36	=36	=36	=36
*met(C)	*met(C)	*met(C)	*met(C)
*M4/4	*M4/4	*M4/4	*M4/4
1GG	1GG	1G	1dd
=37	=37	=37	=37
*	*	*clefC4	*
2D\	1r	8r	4r
.	.	8d\L	.
.	.	8c\	4dd\
.	.	8B\J	.
4.A\	.	8A\L	4.cc\
.	.	8c\	.
.	.	8B\	.
8A\	.	8A\J	8cc\
=38	=38	=38	=38
4G\	4r	2G/	4.b\
4G\	4G\	.	.
.	.	.	8b\
4.F\	4.F\	2r	8a\L
.	.	.	8ff\
.	.	.	8ee\
8F\	8F\	.	8dd\J
=39	=39	=39	=39
*	*	*clefF4	*
4E\	4.E\	2r	8cc#\L
.	.	.	8ee\
4E\	.	.	8dd\
.	8E\	.	8cc#\J
2D\	2D\	4r	2dd\
.	.	4D\	.
=40	=40	=40	=40
2C/	8r	4.C/	1r
.	8c\L	.	.
.	8B\	.	.
.	8A\J	8C/	.
4.BB/	8G#\L	4.BB/	.
.	8B\	.	.
.	8A\	.	.
8BB/	8G#\J	8BB/	.
=41	=41	=41	=41
2AA/	2A\	4AA/	8r
.	.	.	8ee\L
.	.	4A\	8dd\
.	.	.	8cc\J
2E\	2r	4.G#\	8b\L
.	.	.	8dd\
.	.	.	8cc\
.	.	8G#\	8b\J
=42	=42	=42	=42
2AA/	4r	2A\	2cc\
.	4AA/	.	.
4C/	4C/	2r	2r
8BB/L	8BB/L	.	.
8AA/J	8AA/J	.	.
=43	=43	=43	=43
4GG/	4GG/	2r	4r
4GG/	4GG/	.	4dd\
4AA/	4AA/	8r	4ff\
.	.	8A\L	.
4BB/	4BB/	8G\	8ee\L
.	.	8F\J	8dd\J
=44	=44	=44	=44
2C/	2C/	8E\L	2ee\
.	.	8G\	.
.	.	8F\	.
.	.	8E\J	.
2D\	2r	4D\	4r
.	.	4d\	4a/
=45	=45	=45	=45
2E\	4r	4.c\	4cc\
.	4E\	.	8b/L
.	.	8c\	8a/J
4G\	4G\	2B\	4b\
8F\L	8F\L	.	4ee\
8E\J	8E\J	.	.
=46	=46	=46	=46
4F\	4F\	1r	8cc\L
.	.	.	8a\
8E\L	8E\L	.	8cc\
8D\J	8D\J	.	8dd\J
2C#/	2C#/	.	8ee\L
.	.	.	8gg\
.	.	.	8ff\
.	.	.	8ee\J
=47	=47	=47	=47
2.D\	2D\	4r	2ff\
.	.	4D\	.
.	4r	4F\	2dd\
4D\	4D\	8E\L	.
.	.	8D\J	.
=48	=48	=48	=48
4.C/	4.C/	8E\L	2r
.	.	8C\	.
.	.	8E\	.
8C/	8C/	8F#\J	.
4.BB/	4.BB/	2G\	4r
.	.	.	4dd\
8BB/	8BB/	.	.
=49	=49	=49	=49
2AA/	2AA/	4r	4.cc\
.	.	4AA/	.
.	.	.	8cc\
2GG/	2r	4.GG/	4.b\
.	.	8GG/	8b\
=50	=50	=50	=50
2FF/	8r	4.FF/	2a/
.	8c\L	.	.
.	8B\	.	.
.	8A\J	8FF/	.
4EE/	8G\L	2EE/	2r
.	8B\	.	.
4E\	8A\	.	.
.	8G\J	.	.
=51	=51	=51	=51
4D\	8A\L	8r	8r
.	8D\	8D/L	8ff\L
8C/L	8F\	8C/	8ee\
8BB/J	8G\J	8BB/J	8dd\J
2AA/	2A\	8AA/L	8cc\L
.	.	8C/	8ee\
.	.	8BB/	8dd\
.	.	8AA/J	8cc\J
=52	=52	=52	=52
2GG#/	2r	2GG#/	8b\L
.	.	.	8dd\
.	.	.	8cc\
.	.	.	8b\J
2AA/	8r	2AA/	4cc\
.	8A\L	.	.
.	8G\	.	8b/L
.	8F\J	.	8a/J
=53	=53	=53	=53
2E\	8E\L	2E\	2b\
.	8G\	.	.
.	8F\	.	.
.	8E\J	.	.
2C#/	4A\	2C#/	4r
.	4AA/	.	4ee\
=54	=54	=54	=54
4D\	1D	4D\	4.dd\
4BB-/	.	4BB-/	.
.	.	.	8dd\
2FF#/	.	2FF#/	4dd\
.	.	.	4cc\
=55	=55	=55	=55
2GG/	4r	2GG/	2b-\
.	4G\	.	.
2D\	2D\	2D\	2a/
=56	=56	=56	=56
1GG	1GG	1G	1g
=57	=57	=57	=57
*M3/2	*M3/2	*M3/2	*M3/2
1C	2C/	2C/	2ee\
.	2C/	2C/	2ee\
2C/	2C/	2C/	2ee\
=58	=58	=58	=58
1.C	1.C	1.C	1.ee
=59	=59	=59	=59
2G\	1.r	1.r	4.dd\
.	.	.	8ee\
2A\	.	.	4.cc\
.	.	.	8dd\
2E\	.	.	2b\
=60	=60	=60	=60
1.AA	1.r	1.r	1.a
=61	=61	=61	=61
2D\	2D\	2D\	2ff#\
2D\	2D\	2D\	2ff#\
2D\	2D\	2D\	2ff#\
=62	=62	=62	=62
1.D	1.D	1.D	1.ff#
=63	=63	=63	=63
2G\	1.r	4.G\	1.r
.	.	8A\	.
2F\	.	4.F\	.
.	.	8G\	.
2E\	.	2E\	.
=64	=64	=64	=64
2D\	4.D\	2D\	1.r
.	8E\	.	.
2C/	4.C/	2r	.
.	8D\	.	.
2BB/	2BB/	2r	.
=65	=65	=65	=65
1AA	1.AA	2A\	4.ee\
.	.	.	8ff\
.	.	2A\	4.dd\
.	.	.	8ee\
2A\	.	2A\	2cc\
=66	=66	=66	=66
2G\	1.r	4.G\	4.b\
.	.	8A\	8cc\
2F\	.	4.F\	4.a/
.	.	8G\	8b\
2E\	.	2E\	2cc#\
=67	=67	=67	=67
1D	1.r	1D	4dd\
.	.	.	4ee\
.	.	.	4dd\
.	.	.	4cc\
2E\	.	2E\	2b\
=68	=68	=68	=68
1.AA	2A\	4AA/	1a
.	.	4BB/	.
.	2A\	4C/	.
.	.	4D\	.
.	2A\	4E\	2r
.	.	4F\	.
=69	=69	=69	=69
2GG/	4.G\	2G\	1.r
.	8A\	.	.
2FF/	4.F\	2r	.
.	8G\	.	.
2E\	2E\	2r	.
=70	=70	=70	=70
1D	4D\	1.r	2a/
.	4E\	.	.
.	4F\	.	2a/
.	4G\	.	.
2F\	4A\	.	2a/
.	4B\	.	.
=71	=71	=71	=71
1C	1c	2c\	4.g/
.	.	.	8a/
.	.	2c\	4.f/
.	.	.	8g/
2C/	2C/	2c\	2e/
=72	=72	=72	=72
1G	1G	4.B\	1d
.	.	8c\	.
.	.	4.A\	.
.	.	8B\	.
2G\	2r	2G\	2dd\
=73	=73	=73	=73
2C/	4.C/	2C/	1ee
.	8D\	.	.
2BB/	4.BB/	2r	.
.	8C/	.	.
2AA/	2AA/	2r	2r
=74	=74	=74	=74
1.GG	1.GG	2G\	4g/
.	.	.	4a/
.	.	2G\	4b\
.	.	.	4cc\
.	.	2G\	4dd\
.	.	.	4ee\
=75	=75	=75	=75
1.D	1.D	4.F\	2ff\
.	.	8G\	.
.	.	4.E\	2gg\
.	.	8F\	.
.	.	2D\	2aa\
=76	=76	=76	=76
*met(C)	*met(C)	*met(C)	*met(C)
*M4/4	*M4/4	*M4/4	*M4/4
1AA	1AA	2A\	2cc#\
.	.	2AA/	2ee\
=77	=77	=77	=77
2BB-/	1r	2BB-/	1dd
2BBn/	.	2BBn/	.
=78	=78	=78	=78
2C#/	2r	2C#/	1r
2D\	2D\	2D\	.
=79	=79	=79	=79
1AA	2.A\	1AA	2r
.	.	.	2a/
.	4A\	.	.
=80	=80	=80	=80
2F#\	2F#\	1r	2.dd\
[2G\	[2G\	.	.
.	.	.	4dd\
=81	=81	=81	=81
2G\]	2G\]	1r	2ee\
2A\	2A\	.	2cc\
=82	=82	=82	=82
1B-	1B-	1r	2dd\
.	.	.	[2gg\
=83	=83	=83	=83
1A	1A	1r	4gg\]
.	.	.	4ff\
.	.	.	2ee\
=84	=84	=84	=84
*	*	*	*MM156
2D\	1D	1r	8r
.	.	.	8dd\L
.	.	.	8dd\
.	.	.	8ee\J
*clefC4	*	*	*
2d\	.	.	4ff\
.	.	.	8dd\L
.	.	.	8ff\J
=85	=85	=85	=85
8c\L	1r	8r	8ee\L
8A\	.	8A\L	8cc\
8A\	.	8A\	8cc\
8B\J	.	8B\J	8dd\J
4c\	.	4c\	4ee\
8A\L	.	8A\L	8cc\L
8c\J	.	8c\J	8ee\J
=86	=86	=86	=86
2G/	2r	8B\L	2dd\
.	.	8G\	.
.	.	8F\	.
.	.	8E\J	.
*clefF4	*	*	*
4D\	8r	2D\	8r
.	8D\L	.	8dd\L
8D\L	8D\	.	8cc\
8E\J	8E\J	.	8b\J
=87	=87	=87	=87
4F\	4F\	1r	4a/
8D\L	8D\L	.	8a/L
8F\J	8F\J	.	8b/J
8E\L	8E\L	.	8cc\L
8C\	8C\	.	8cc\
8E\	8E\	.	8b\
8F\J	8F\J	.	8a\J
=88	=88	=88	=88
4.G\	2G\	4G\	2b\
.	.	8G\L	.
8A\	.	8A\J	.
4B-\	2r	4B-\	8r
.	.	.	8dd\L
8G\L	.	8G\L	8dd\
8B-\J	.	8B-\J	8dd\J
=89	=89	=89	=89
2F\	1r	8A\L	8cc\L
.	.	8F\	16a\L
.	.	.	16b\JJ
.	.	8A\	8cc\L
.	.	8B\J	8dd\J
2C/	.	8c\L	2ee\
.	.	8C\	.
.	.	8E\	.
.	.	8F\J	.
=90	=90	=90	=90
2G\	4G\	2G\	2r
.	8G\L	.	.
.	8G\J	.	.
2D\	8F\L	2r	8r
.	16D\L	.	8a/L
.	16E\JJ	.	.
.	8F\L	.	8a/
.	8G\J	.	8b/J
=91	=91	=91	=91
4AA/	8A\L	4AA/	8cc\L
.	8F\	.	16a\L
.	.	.	16b\JJ
8AA/L	8E\	8AA/L	8cc\L
8BB/J	8D\J	8BB/J	8dd\J
8C/L	2A\	8C/L	2ee\
8AA/	.	16AA/L	.
.	.	16BB/JJ	.
8C/	.	8C/L	.
8D/J	.	8D/J	.
=92	=92	=92	=92
8E/L	1r	8E/L	8r
8C/	.	8C/	8ee\L
8BB/	.	8BB/	8ee\
8AA/J	.	8AA/J	8ff#\J
2GG/	.	8GG/L	8gg\L
.	.	8AA/	16ffn\L
.	.	.	16ee\JJ
.	.	8BB/	8dd\L
.	.	8GG/J	8gg\J
=93	=93	=93	=93
2D\	1r	2D\	8ff\L
.	.	.	16dd\L
.	.	.	16ee\JJ
.	.	.	8ff\L
.	.	.	8gg\J
2C#/	.	2C#/	2ee\
=94	=94	=94	=94
4D\	4D\	2D\	2r
8D\L	8D\L	.	.
8D\J	8D\J	.	.
8C/L	8C/L	2r	4ee\
8AA/J	16AA/L	.	.
.	16BB/JJ	.	.
4C/	8C/L	.	8ee\L
.	8C/J	.	8ee\J
=95	=95	=95	=95
2BB/	4BB/	2r	8dd\L
.	.	.	16b\L
.	.	.	16cc\JJ
.	4BB/	.	8dd\L
.	.	.	8ee\J
4AA/	2AA/	4A\	8cc\L
.	.	.	8a\
4A\	.	8A\L	8cc\
.	.	8A\J	8dd\J
=96	=96	=96	=96
8G\L	1r	8G\L	2b\
8E\J	.	16E\L	.
.	.	16F\JJ	.
4G\	.	8G\L	.
.	.	8G\J	.
2F#\	.	2F#\	2r
=97	=97	=97	=97
2G\	4G\	8G\L	8r
.	.	8BB\	8dd\L
.	8G\L	8BB\	8dd\
.	8G\J	8C\J	8ee\J
2D\	8F\L	2D\	4ff\
.	16D\L	.	.
.	16E\JJ	.	.
.	8F\L	.	8dd\L
.	8D\J	.	8ff\J
=98	=98	=98	=98
4.AA/	2.A\	8r	2ee\
.	.	8AA/L	.
.	.	8AA/	.
8BB/	.	8BB/J	.
4C/	.	4C/	8r
.	.	.	8ee\L
8AA/L	4A\	8AA/L	8ee\
8C/J	.	8C/J	8ee\J
=99	=99	=99	=99
4.BB/	2G\	8BB/L	8dd\L
.	.	8GG/	16b\L
.	.	.	16cc\JJ
.	.	8BB/	8dd\L
8C/	.	8C/J	8ee\J
[2D\	[2D\	[2D\	4.ff\
.	.	.	16dd\LL
.	.	.	16ee\JJ
=100	=100	=100	=100
2D\]	2D\]	2D\]	8ff\L
.	.	.	8gg\
.	.	.	8aa\
.	.	.	8cc#\J
2D\	2D\	2D\	2dd\
=101	=101	=101	=101
0GG	0G	0GG	0dd
==	==	==	==
*-	*-	*-	*-
!!!ENC: Craig Stuart Sapp
!!!END: 2004/12/14/
